X: 02129
T: THANKSGIVING REEL
C: Bob McQuillen '73
B: Bob's Note Book 1&2 #129
R: reel
Z: 2019 John Chambers <jc:trillian.mit.edu>
M: C
L: 1/8
K: F
cB \
| Accd cdfg | agfg afdc | Accd cdfa | gfga g2cB |
| Accd cdfg | agfg afdc | dfbg a2f2 | agfe f2  :|
|: ef \
| gcba gcba | gfed cBAG | FcAc AFAB | cffe f2c2 |
| c2c2 d2d2 | c6     a2 | bagf edcb | afge f2  :|
%%begintext align
%% "Now thank we all our God"
%%endtext

%%sep 1 1 500

%%sep 1 1 500

